images/viewly.svg

<svg height="250" viewBox="0 0 250 250" width="250" xmlns="http://www.w3.org/2000/svg" xmlns:xlink="http://www.w3.org/1999/xlink"><linearGradient id="a"><stop offset="0" stop-color="#0ff"/><stop offset="1" stop-color="#00f"/></linearGradient><linearGradient id="b" gradientTransform="matrix(100 0 0 166.25 125 41.875)" gradientUnits="userSpaceOnUse" x1="1.388172" x2="-1.172778" xlink:href="#a" y1="-.1242" y2="1.9263"/><linearGradient id="c" gradientTransform="matrix(-100 0 0 166.25 125 41.875)" gradientUnits="userSpaceOnUse" x1="1.621086" x2="-.449131" xlink:href="#a" y1="-.800167" y2="1.765886"/><g fill-rule="evenodd"><path d="m125 88.585938 33.332031-46.710938h66.667969v70.296875l-100 95.953125zm0 0" fill="url(#b)"/><path d="m125 88.585938-33.332031-46.710938h-66.667969v70.296875l100 95.953125zm0 0" fill="url(#c)"/></g></svg>

<?xml version="1.0" encoding="UTF-8"?>
<svg xmlns="http://www.w3.org/2000/svg" xmlns:xlink="http://www.w3.org/1999/xlink" width="250px" height="250px" viewBox="0 0 250 250" version="1.1">
<defs>
<linearGradient id="linear0" gradientUnits="userSpaceOnUse" x1="1.388172" y1="-0.1242" x2="-1.172778" y2="1.9263" gradientTransform="matrix(100,0,0,166.25,125,41.875)">
<stop offset="0" style="stop-color:rgb(0%,100%,100%);stop-opacity:1;"/>
<stop offset="1" style="stop-color:rgb(0%,0%,100%);stop-opacity:1;"/>
</linearGradient>
<linearGradient id="linear1" gradientUnits="userSpaceOnUse" x1="1.621086" y1="-0.800167" x2="-0.449131" y2="1.765886" gradientTransform="matrix(-100,0,0,166.25,125,41.875)">
<stop offset="0" style="stop-color:rgb(0%,100%,100%);stop-opacity:1;"/>
<stop offset="1" style="stop-color:rgb(0%,0%,100%);stop-opacity:1;"/>
</linearGradient>
</defs>
<g id="surface1">
<path style=" stroke:none;fill-rule:evenodd;fill:url(#linear0);" d="M 125 88.585938 L 158.332031 41.875 L 225 41.875 L 225 112.171875 L 125 208.125 Z M 125 88.585938 "/>
<path style=" stroke:none;fill-rule:evenodd;fill:url(#linear1);" d="M 125 88.585938 L 91.667969 41.875 L 25 41.875 L 25 112.171875 L 125 208.125 Z M 125 88.585938 "/>
</g>
</svg>
